shelter/assets/icons/help/icon-bowls-and-cups.svg

<svg width="60" height="60" viewBox="0 0 60 60" fill="none" xmlns="http://www.w3.org/2000/svg">
<path d="M59.985 39.8551L57.1255 20.6441C57.0792 15.0657 53.693 9.89303 47.8159 6.43765C42.9483 3.57605 36.6213 2 30.0001 2C23.3786 2 17.0515 3.57605 12.1838 6.43765C6.3069 9.89303 2.92054 15.0657 2.87437 20.6441L0.0148828 39.8551C0.00503905 39.9216 0 39.9887 0 40.056C0 45.7049 3.76452 50.936 10.3284 54.408C15.7022 57.2504 22.6883 58.8158 30.0001 58.8158C37.3116 58.8158 44.2978 57.2504 49.6716 54.408C56.2354 50.936 60 45.7049 60 40.056C59.9999 39.9888 59.9949 39.9216 59.985 39.8551ZM13.5668 8.78995C18.0215 6.17105 23.8576 4.72871 30.0001 4.72871C36.1424 4.72871 41.9785 6.17105 46.4331 8.78995C51.4956 11.7663 54.3993 16.1293 54.3993 20.7599C54.3993 25.3906 51.4957 29.7535 46.4332 32.7299C41.9785 35.3488 36.1424 36.7911 30.0001 36.7911C23.8577 36.7911 18.0215 35.3488 13.5669 32.7299C8.5044 29.7536 5.60073 25.3906 5.60073 20.7599C5.60073 16.1293 8.50428 11.7664 13.5668 8.78995ZM48.3956 51.996C43.4079 54.6342 36.875 56.0871 30.0001 56.0871C23.125 56.0871 16.592 54.6342 11.6044 51.996C6.00374 49.0333 2.77453 44.7218 2.72917 40.1535L4.60757 27.5342C6.17225 30.4612 8.75283 33.0645 12.1841 35.0819C17.0517 37.9434 23.3787 39.5195 30.0001 39.5195C36.6213 39.5195 42.9485 37.9434 47.816 35.0819C51.2473 33.0645 53.8279 30.461 55.3925 27.5342L57.2709 40.1535C57.2255 44.7219 53.9963 49.0335 48.3956 51.996Z" fill="#F1CDB3"/>
<path d="M30.0001 34.0618C39.3534 34.0618 47.6079 30.4427 50.5397 25.0569C51.29 23.6803 51.6707 22.2344 51.6707 20.7599C51.6707 17.0676 49.3194 13.652 45.0502 11.1422C41.0085 8.76631 35.6637 7.45791 30.0001 7.45791C24.3366 7.45791 18.9916 8.76643 14.9501 11.1423C10.6807 13.6521 8.32945 17.0676 8.32945 20.76C8.32945 22.2347 8.70996 23.6804 9.46008 25.0563C12.3923 30.4427 20.6467 34.0618 30.0001 34.0618ZM30.0001 31.3332C22.1546 31.3332 15.0282 28.5145 12.2557 24.4006C15.0293 20.2891 22.1568 17.4732 30.0001 17.4732C37.8435 17.4732 44.9711 20.2891 47.7446 24.4008C44.9726 28.5145 37.8458 31.3332 30.0001 31.3332ZM11.0579 20.76C11.058 18.0744 12.9313 15.4942 16.3328 13.4945C19.9617 11.3613 24.8154 10.1865 30 10.1865C35.1845 10.1865 40.0384 11.3613 43.6672 13.4946C47.0687 15.4942 48.9421 18.0743 48.9421 20.76C48.9421 20.9993 48.9259 21.238 48.896 21.4761C45.1332 17.3699 37.9658 14.7446 30 14.7446C22.0342 14.7446 14.8669 17.37 11.1041 21.4761C11.0738 21.2386 11.0584 20.9994 11.0579 20.76Z" fill="#F1CDB3"/>
<path d="M30 41.7701C29.8155 41.7701 29.6329 41.8076 29.4633 41.8801C29.2936 41.9527 29.1405 42.059 29.0131 42.1924C28.1243 43.1235 25.225 46.3365 25.225 48.5916C25.225 51.2246 27.367 53.3666 30 53.3666C32.633 53.3666 34.775 51.2246 34.775 48.5916C34.775 46.3365 31.8756 43.1235 30.987 42.1924C30.8595 42.059 30.7064 41.9527 30.5368 41.8801C30.3671 41.8076 30.1845 41.7701 30 41.7701ZM30 50.6381C28.8716 50.6381 27.9536 49.7201 27.9536 48.5917C27.9536 47.986 28.9058 46.5224 30 45.1941C31.0943 46.5226 32.0465 47.986 32.0465 48.5917C32.0465 49.7201 31.1284 50.6381 30 50.6381Z" fill="#F1CDB3"/>
<path d="M23.8843 23.8977H23.4637C22.7102 23.8977 22.0994 24.5085 22.0994 25.262C22.0994 26.0155 22.7102 26.6263 23.4637 26.6263H23.8843C24.6378 26.6263 25.2486 26.0155 25.2486 25.262C25.2486 24.5085 24.6378 23.8977 23.8843 23.8977Z" fill="#F1CDB3"/>
<path d="M40.074 23.8977H30.342C29.5884 23.8977 28.9777 24.5085 28.9777 25.262C28.9777 26.0155 29.5884 26.6263 30.342 26.6263H40.074C40.8275 26.6263 41.4383 26.0155 41.4383 25.262C41.4383 24.5085 40.8275 23.8977 40.074 23.8977Z" fill="#F1CDB3"/>
</svg>

<svg width="60" height="60" fill="none" xmlns="http://www.w3.org/2000/svg"><path d="M59.985 39.855l-2.86-19.21c-.046-5.58-3.432-10.752-9.31-14.207C42.949 3.576 36.622 2 30 2S17.052 3.576 12.184 6.438c-5.877 3.455-9.263 8.628-9.31 14.206L.014 39.855c-.009.067-.014.134-.014.201 0 5.649 3.765 10.88 10.328 14.352 5.374 2.842 12.36 4.408 19.672 4.408 7.312 0 14.298-1.566 19.672-4.408C56.235 50.936 60 45.705 60 40.056c0-.067-.005-.134-.015-.2zM13.567 8.79C18.02 6.17 23.857 4.729 30 4.729c6.142 0 11.978 1.442 16.433 4.06 5.063 2.977 7.966 7.34 7.966 11.97 0 4.632-2.903 8.994-7.966 11.97-4.455 2.62-10.29 4.062-16.433 4.062-6.142 0-11.979-1.442-16.433-4.061C8.504 29.754 5.6 25.39 5.6 20.76c0-4.63 2.903-8.994 7.966-11.97zm34.829 43.206C43.408 54.634 36.875 56.087 30 56.087s-13.408-1.453-18.396-4.091c-5.6-2.963-8.83-7.274-8.875-11.843l1.879-12.619c1.564 2.927 4.145 5.53 7.576 7.548C17.052 37.943 23.38 39.52 30 39.52c6.621 0 12.949-1.577 17.816-4.438 3.431-2.017 6.012-4.621 7.576-7.548l1.879 12.62c-.046 4.568-3.275 8.88-8.875 11.842z" fill="#F1CDB3"/><path d="M30 34.062c9.353 0 17.608-3.62 20.54-9.005.75-1.377 1.13-2.823 1.13-4.297 0-3.692-2.35-7.108-6.62-9.618C41.01 8.766 35.664 7.458 30 7.458c-5.663 0-11.008 1.308-15.05 3.684-4.27 2.51-6.62 5.926-6.62 9.618 0 1.475.38 2.92 1.13 4.296 2.932 5.387 11.187 9.006 20.54 9.006zm0-2.729c-7.845 0-14.972-2.818-17.744-6.932 2.773-4.112 9.9-6.928 17.744-6.928 7.843 0 14.971 2.816 17.745 6.928-2.772 4.114-9.9 6.932-17.745 6.932zM11.058 20.76c0-2.686 1.873-5.266 5.275-7.266 3.629-2.133 8.482-3.307 13.667-3.307 5.184 0 10.038 1.174 13.667 3.308 3.402 2 5.275 4.58 5.275 7.265 0 .24-.016.478-.046.716-3.763-4.106-10.93-6.731-18.896-6.731-7.966 0-15.133 2.625-18.896 6.731a5.754 5.754 0 0 1-.046-.716zM30 41.77a1.366 1.366 0 0 0-.987.422c-.889.931-3.788 4.145-3.788 6.4A4.78 4.78 0 0 0 30 53.367a4.78 4.78 0 0 0 4.775-4.775c0-2.255-2.9-5.468-3.788-6.4A1.367 1.367 0 0 0 30 41.77zm0 8.868a2.049 2.049 0 0 1-2.046-2.046c0-.606.952-2.07 2.046-3.398 1.094 1.329 2.047 2.792 2.047 3.398A2.049 2.049 0 0 1 30 50.638z" fill="#F1CDB3"/><path d="M23.884 23.898h-.42a1.364 1.364 0 1 0 0 2.728h.42a1.364 1.364 0 1 0 0-2.728zm16.19 0h-9.732a1.364 1.364 0 1 0 0 2.728h9.732a1.364 1.364 0 1 0 0-2.728z" fill="#F1CDB3"/></svg>
